X: 11496
T: Eddie Duffy's
R: hornpipe
M: 4/4
K: Gmajor
|:e/d>c|B>GB>d c>BA>F|D>fa>f g>e d2|B>G (3Bcd c>BA>G|F>AE>A D2 (3edc|
B2 (3Bcd c>BA>F|D>f (3agf g>ed>c|B>dB>G A>c (3AGF|G2 G2 G3/2:|
|:A/B>c|d2 (3cBA (3GAG a>g|(3fgf d2 d2 (3efg|a>gf>e d>gb>g|f2 d>^c d2 e>f|
g2 g>e f2 f>d|d>fa>f g2 (3edc|(3Bcd B>g c>AF>D|G2 (3GGG G3/2:|

